X:2749
T:Caséme fai tres semanes (CT 188)
C:Tradicional
S:Música Tradicional Asturiana, (C) Tello & Tito. Asturies, 2001.
S:http://pagina.de/MusTradAst <telloytito@asturies.org>
N:Canción de empleo indeterminado, dictada por Leandra González Zuazua, de cincuenta años, de Uviéu.
O:Uviéu
A:Asturies
Z:Cancioneru de Torner 188
M:3/4
L:1/8
Q:3/8=80
W:Caseme fai tres semanes,
W:el demoniu me tentó,
W:con la fía Blas el Nanu
W:y bien que me la pegó.
W:
W:Ofreciome tanto y cuanto,
W:díxome que yera bona neña
W:y el Nanu metiome un fuelle
W:comu'l d'una gaita vieya.
W:
W:Pesquela pelos guedeyos
W:y al mio suegru la llevé:
W:"Tome, suegru, la so fía,
W:quédese con ella usté,
W:que yo nun soi tapadera
W:de naide sin dar daqué.
W:
W:Nun soi a tornala en casa,
W:ye una cabra saltariega;
W:bien lo saben los vecinos,
W:que l'atopen per uquiera".
W:
W:Y contestóme'l mio suegru:
W:"Calla, Lin, y ten paciencia:
W:lo mesmo yera so madre
W:y desque vieya dio güelta.
K:G
GGG GAB|c2c4|Bdd cdc|B6|
Acc BcB|A2G4|FAA GGF|G6|
FAA GAA|G2G4|FAA GAA|G2G4|
FGA BcB|(d3/2c/2) B4|Acc BBA|G2G4|
FGG FGA|B2B4|Acc BBA|G6|
GBc Bdc|(d3/2c/2) B4|Acc BBA|B6|
FGA BcB|(B3/2 (3c/4B/4A/4 G4)|FAB AAG|G6|
GGG GAB|c2c4|Bdd cdc|B2B4|
Acc BcB|A2G4|FAB AAG|G2G4|
FGG FGA|B2B4|Acc BBA|G2G4|
GBc Bdc|(d3/2c/2) B4|Acc BBA|G2G4|


